X:295
T:Cat in the Hopper, The
T:If Ever I Go tu a Weddin' [sic]
R:jig
Z:id:hn-jig-295
M:6/8
K:Ador
~A3 Bcd|BGG ~G2B|ABA a2f|gee e2f|
~g3 gfe|ded Bcd|efe ~e2d|1 cAA A2G:|2 cAA A3||
|:eaa aga|bgg ~g2b|~a3 agf|gee e2f|
~g3 gfe|ded Bcd|efe ~e2d|1 cAA A3:|2 cAA A2G||

